lib/flags/s/GRD.svg

<svg xmlns="http://www.w3.org/2000/svg" fill="none" viewBox="0 0 16 12"><mask id="GRD_svg__a" width="16" height="12" x="0" y="0" mask-type="alpha" maskUnits="userSpaceOnUse"><path fill="#fff" d="M0 0H16V12H0z"/></mask><g mask="url(#GRD_svg__a)"><path fill="#C51918" fill-rule="evenodd" d="M0 0H16V11C16 11.5523 15.5523 12 15 12H1C0.447715 12 0 11.5523 0 11V0Z" clip-rule="evenodd"/><path fill="#FECA00" fill-rule="evenodd" d="M3 3H13V9H3V3Z" clip-rule="evenodd"/><mask id="GRD_svg__b" width="10" height="6" x="3" y="3" mask-type="alpha" maskUnits="userSpaceOnUse"><path fill="#fff" fill-rule="evenodd" d="M3 3H13V9H3V3Z" clip-rule="evenodd"/></mask><g mask="url(#GRD_svg__b)"><path fill="#23875F" fill-rule="evenodd" d="M3 3 8 6 3 9V3zM13 3 8 6 13 9V3z" clip-rule="evenodd"/><mask width="5" height="6" x="8" y="3" mask-type="alpha" maskUnits="userSpaceOnUse"><path fill="#fff" fill-rule="evenodd" d="M13 3L8 6L13 9V3Z" clip-rule="evenodd"/></mask><path fill="#C51918" fill-rule="evenodd" d="M8 8C9.10457 8 10 7.10457 10 6C10 4.89543 9.10457 4 8 4C6.89543 4 6 4.89543 6 6C6 7.10457 6.89543 8 8 8Z" clip-rule="evenodd"/><path fill="#FECA00" fill-rule="evenodd" d="M7.96473 6.65661L6.92927 7.37483L7.26014 6.14469L6.5 5.35888L7.52927 5.31639L7.96473 4.09998L8.40019 5.31639H9.42771L8.66932 6.14469L9.04913 7.30222L7.96473 6.65661Z" clip-rule="evenodd"/></g><path fill="#FECA00" fill-rule="evenodd" d="M4.38836 2.22097L4.95425 1.87007L5.54688 2.1855L5.33931 1.61996L5.75377 1.21528H5.19223L4.95425 0.620972L4.71627 1.21528L4.15377 1.23604L4.56918 1.61996L4.38836 2.22097ZM7.38836 2.22097L7.95425 1.87007L8.54688 2.1855L8.33931 1.61996L8.75377 1.21528H8.19223L7.95425 0.620972L7.71627 1.21528L7.15377 1.23604L7.56918 1.61996L7.38836 2.22097ZM10.9542 1.87007L10.3884 2.22097L10.5692 1.61996L10.1538 1.23604L10.7163 1.21528L10.9542 0.620972L11.1922 1.21528H11.7538L11.3393 1.61996L11.5469 2.1855L10.9542 1.87007ZM4.38789 11.0835L4.95377 10.7326L5.5464 11.0481L5.33883 10.4825L5.75329 10.0778H5.19175L4.95377 9.48354L4.71579 10.0778L4.15329 10.0986L4.56871 10.4825L4.38789 11.0835ZM7.95377 10.7326L7.38789 11.0835L7.56871 10.4825L7.15329 10.0986L7.71579 10.0778L7.95377 9.48354L8.19175 10.0778H8.75329L8.33883 10.4825L8.5464 11.0481L7.95377 10.7326ZM10.3879 11.0835L10.9538 10.7326L11.5464 11.0481L11.3388 10.4825L11.7533 10.0778H11.1917L10.9538 9.48354L10.7158 10.0778L10.1533 10.0986L10.5687 10.4825L10.3879 11.0835Z" clip-rule="evenodd"/><path fill="#C51918" fill-rule="evenodd" d="M4.31734 6.38606C4.31734 6.38606 4.58662 6.62578 4.73328 6.7074C4.78385 6.51574 4.67102 6.08152 4.67102 6.08152C4.63936 5.97772 4.29211 5.79163 4.29211 5.79163C4.29211 5.79163 4.19458 6.1193 4.31734 6.38606Z" clip-rule="evenodd"/><path fill="#FECA00" fill-rule="evenodd" d="M4.59787 6.96509C4.59787 6.96509 3.90625 6.64206 3.83597 6.18516C3.76568 5.72826 3.91474 4.99988 3.91474 4.99988C3.91474 4.99988 5.03784 5.25546 5.11425 5.80306C5.19066 6.35067 4.93699 6.69468 4.93699 6.69468C4.93699 6.69468 4.67721 6.02714 4.43208 5.95309C4.43208 5.95309 4.43208 6.61467 4.59787 6.96509Z" clip-rule="evenodd"/></g></svg>

<svg xmlns="http://www.w3.org/2000/svg" fill="none" viewBox="0 0 16 12"><mask id="GRD_svg__a" width="16" height="12" x="0" y="0" maskUnits="userSpaceOnUse"><path fill="#fff" d="M0 0h16v12H0z"/></mask><g mask="url(#GRD_svg__a)"><path fill="#C51918" fill-rule="evenodd" d="M0 0h16v11a1 1 0 01-1 1H1a1 1 0 01-1-1V0z" clip-rule="evenodd"/><path fill="#FECA00" fill-rule="evenodd" d="M3 3h10v6H3V3z" clip-rule="evenodd"/><mask id="GRD_svg__b" width="10" height="6" x="3" y="3" maskUnits="userSpaceOnUse"><path fill="#fff" fill-rule="evenodd" d="M3 3h10v6H3V3z" clip-rule="evenodd"/></mask><g fill-rule="evenodd" clip-rule="evenodd" mask="url(#GRD_svg__b)"><path fill="#23875F" d="M3 3l5 3-5 3V3zm10 0L8 6l5 3V3z"/><path fill="#C51918" d="M8 8a2 2 0 100-4 2 2 0 000 4z"/><path fill="#FECA00" d="M7.965 6.657l-1.036.718.331-1.23-.76-.786 1.03-.043.435-1.216.435 1.216h1.028l-.759.829.38 1.157-1.084-.645z"/></g><path fill="#FECA00" fill-rule="evenodd" d="M4.388 2.221l.566-.35.593.315-.208-.566.415-.405h-.562L4.954.621l-.238.594-.562.021.415.384-.18.601zm3 0l.566-.35.593.315-.208-.566.415-.405h-.562L7.954.621l-.238.594-.562.021.415.384-.18.601zm3.566-.35l-.566.35.181-.601-.415-.384.562-.02.238-.595.238.594h.562l-.415.405.208.566-.593-.316zm-6.566 9.213l.566-.351.592.315-.207-.565.414-.405h-.561l-.238-.594-.238.594-.563.02.416.385-.181.6zm3.566-.351l-.566.35.18-.6-.415-.384.563-.021.238-.594.238.594h.561l-.414.405.207.565-.592-.315zm2.434.35l.566-.35.592.315-.207-.565.414-.405h-.561l-.238-.594-.238.594-.563.02.416.385-.181.6z" clip-rule="evenodd"/><path fill="#C51918" fill-rule="evenodd" d="M4.317 6.386s.27.24.416.321c.05-.191-.062-.626-.062-.626-.032-.103-.379-.29-.379-.29s-.097.328.025.595z" clip-rule="evenodd"/><path fill="#FECA00" fill-rule="evenodd" d="M4.598 6.965s-.692-.323-.762-.78C3.766 5.728 3.915 5 3.915 5s1.123.255 1.2.803c.076.548-.178.892-.178.892s-.26-.668-.505-.742c0 0 0 .662.166 1.012z" clip-rule="evenodd"/></g></svg>
